src/assets/Card1.svg

<svg width="80" height="80" viewBox="0 0 80 80" fill="none" xmlns="http://www.w3.org/2000/svg">
<mask id="mask0_3589_18683" style="mask-type:luminance" maskUnits="userSpaceOnUse" x="0" y="0" width="80" height="80">
<path d="M0 7.62939e-06H80V80H0V7.62939e-06Z" fill="white"/>
</mask>
<g mask="url(#mask0_3589_18683)">
<path d="M47.6562 21.0938H44.5312V30.4688H47.6562C50.245 30.4688 52.3437 28.37 52.3437 25.7812C52.3437 23.1925 50.245 21.0938 47.6562 21.0938Z" stroke="black" stroke-width="4" stroke-miterlimit="10" stroke-linecap="round" stroke-linejoin="round"/>
<path d="M13.2812 21.0938H16.4062V30.4688H13.2812C10.6925 30.4688 8.59375 28.37 8.59375 25.7812C8.59375 23.1925 10.6925 21.0938 13.2812 21.0938Z" stroke="black" stroke-width="4" stroke-miterlimit="10" stroke-linecap="round" stroke-linejoin="round"/>
<path d="M44.5312 21.0938C49.7089 21.0938 53.9062 16.8964 53.9062 11.7188C53.9062 6.54109 49.7089 2.34375 44.5312 2.34375H22.6562C17.4786 2.34375 13.2812 6.54109 13.2812 11.7188V21.0938" stroke="black" stroke-width="4" stroke-miterlimit="10" stroke-linecap="round" stroke-linejoin="round"/>
<path d="M77.6562 62.0313C77.6562 70.6608 70.6608 77.6562 62.0312 77.6562C53.4017 77.6562 46.4062 70.6608 46.4062 62.0313C46.4062 53.4017 53.4017 46.4063 62.0312 46.4063C70.6608 46.4063 77.6562 53.4017 77.6562 62.0313Z" stroke="black" stroke-width="4" stroke-miterlimit="10" stroke-linecap="round" stroke-linejoin="round"/>
<path d="M24.2187 51.0938L11.5842 54.2523C7.88641 55.1769 5.11641 58.2481 4.57719 62.0216L2.34375 77.6562H62.0312" stroke="black" stroke-width="4" stroke-miterlimit="10" stroke-linecap="round" stroke-linejoin="round"/>
<path d="M48.59 54.0625L36.7188 51.0947" stroke="black" stroke-width="4" stroke-miterlimit="10" stroke-linecap="round" stroke-linejoin="round"/>
<path d="M69.8438 58.125C69.8438 59.4194 68.7944 60.4688 67.5 60.4688C66.2056 60.4688 65.1562 59.4194 65.1562 58.125C65.1562 56.8306 66.2056 55.7812 67.5 55.7812C68.7944 55.7812 69.8438 56.8306 69.8438 58.125Z" fill="black"/>
<path d="M54.2188 58.125C54.2188 59.4194 55.2681 60.4688 56.5625 60.4688C57.8569 60.4688 58.9062 59.4194 58.9062 58.125C58.9062 56.8306 57.8569 55.7812 56.5625 55.7812C55.2681 55.7812 54.2188 56.8306 54.2188 58.125Z" fill="black"/>
<path d="M67.5 66.7188C64.4797 69.8438 59.5828 69.8438 56.5625 66.7188" stroke="black" stroke-width="4" stroke-miterlimit="10" stroke-linecap="round" stroke-linejoin="round"/>
<path d="M24.2188 45.2205V52.6563C24.2188 56.1081 27.017 58.9062 30.4687 58.9062C33.9205 58.9062 36.7187 56.1081 36.7187 52.6563V45.2205" stroke="black" stroke-width="4" stroke-miterlimit="10" stroke-linecap="round" stroke-linejoin="round"/>
<path d="M32.4452 47.3355C31.1622 47.7632 29.7752 47.7632 28.4923 47.3355C21.2747 44.9297 16.4062 38.175 16.4062 30.5671V21.0938L30.4688 17.9688L44.5312 21.0938V30.5671C44.5312 38.175 39.6628 44.9297 32.4452 47.3355Z" stroke="black" stroke-width="4" stroke-miterlimit="10" stroke-linecap="round" stroke-linejoin="round"/>
</g>
</svg>

<svg xmlns="http://www.w3.org/2000/svg" width="80" height="80" fill="none" viewBox="0 0 80 80"><mask id="a" width="80" height="80" x="0" y="0" maskUnits="userSpaceOnUse" style="mask-type:luminance"><path fill="#fff" d="M0 0h80v80H0z"/></mask><g mask="url(#a)"><path stroke="#000" stroke-linecap="round" stroke-linejoin="round" stroke-miterlimit="10" stroke-width="4" d="M47.656 21.094h-3.125v9.375h3.125a4.688 4.688 0 0 0 0-9.375M13.281 21.094h3.125v9.375h-3.125a4.688 4.688 0 0 1 0-9.375M44.531 21.094a9.375 9.375 0 0 0 0-18.75H22.656a9.375 9.375 0 0 0-9.375 9.375v9.375M77.656 62.031c0 8.63-6.995 15.625-15.625 15.625s-15.625-6.995-15.625-15.625 6.996-15.625 15.625-15.625c8.63 0 15.625 6.996 15.625 15.625"/><path stroke="#000" stroke-linecap="round" stroke-linejoin="round" stroke-miterlimit="10" stroke-width="4" d="m24.219 51.094-12.635 3.158a9.375 9.375 0 0 0-7.007 7.77L2.344 77.656H62.03M48.59 54.063l-11.871-2.968"/><path fill="#000" d="M69.844 58.125a2.344 2.344 0 1 1-4.688 0 2.344 2.344 0 0 1 4.688 0M54.219 58.125a2.344 2.344 0 1 0 4.687 0 2.344 2.344 0 0 0-4.687 0"/><path stroke="#000" stroke-linecap="round" stroke-linejoin="round" stroke-miterlimit="10" stroke-width="4" d="M67.5 66.719a7.55 7.55 0 0 1-10.937 0M24.219 45.22v7.436a6.25 6.25 0 1 0 12.5 0v-7.435"/><path stroke="#000" stroke-linecap="round" stroke-linejoin="round" stroke-miterlimit="10" stroke-width="4" d="M32.445 47.336a6.25 6.25 0 0 1-3.953 0 17.68 17.68 0 0 1-12.086-16.769v-9.473l14.063-3.125 14.062 3.125v9.473a17.68 17.68 0 0 1-12.086 16.769"/></g></svg>
